svg/fluentui-system-icons/ic_fluent_doctor_20_regular.svg

<svg width="20" height="20" viewBox="0 0 20 20" fill="none" xmlns="http://www.w3.org/2000/svg">
<path d="M8.5 4C8.22386 4 8 4.22386 8 4.5V7.50098C8 7.77712 7.77614 8.00098 7.5 8.00098H4.5C4.22386 8.00098 4 8.22483 4 8.50098V11.501C4 11.7771 4.22386 12.001 4.5 12.001H7.5C7.77614 12.001 8 12.2248 8 12.501V15.5019C8 15.7781 8.22386 16.0019 8.5 16.0019H11.5C11.7761 16.0019 12 15.7781 12 15.5019V12.501C12 12.2248 12.2239 12.001 12.5 12.001H15.5C15.7761 12.001 16 11.7771 16 11.501V8.50098C16 8.22483 15.7761 8.00098 15.5 8.00098H12.5C12.2239 8.00098 12 7.77712 12 7.50098V4.5C12 4.22386 11.7761 4 11.5 4H8.5ZM7 4.5C7 3.67157 7.67157 3 8.5 3H11.5C12.3284 3 13 3.67157 13 4.5V7.00098H15.5C16.3284 7.00098 17 7.67255 17 8.50098V11.501C17 12.3294 16.3284 13.001 15.5 13.001H13V15.5019C13 16.3304 12.3284 17.0019 11.5 17.0019H8.5C7.67157 17.0019 7 16.3304 7 15.5019V13.001H4.5C3.67157 13.001 3 12.3294 3 11.501V8.50098C3 7.67255 3.67157 7.00098 4.5 7.00098H7V4.5Z" fill="#212121"/>
</svg>

<svg xmlns="http://www.w3.org/2000/svg" width="20" height="20"><path d="M8.5 4a.5.5 0 0 0-.5.5v3.001a.5.5 0 0 1-.5.5h-3a.5.5 0 0 0-.5.5v3a.5.5 0 0 0 .5.5h3a.5.5 0 0 1 .5.5v3a.5.5 0 0 0 .5.5h3a.5.5 0 0 0 .5-.5v-3a.5.5 0 0 1 .5-.5h3a.5.5 0 0 0 .5-.5v-3a.5.5 0 0 0-.5-.5h-3a.5.5 0 0 1-.5-.5V4.5a.5.5 0 0 0-.5-.5h-3ZM7 4.5A1.5 1.5 0 0 1 8.5 3h3A1.5 1.5 0 0 1 13 4.5v2.501h2.5a1.5 1.5 0 0 1 1.5 1.5v3a1.5 1.5 0 0 1-1.5 1.5H13v2.5a1.5 1.5 0 0 1-1.5 1.5h-3a1.5 1.5 0 0 1-1.5-1.5v-2.5H4.5a1.5 1.5 0 0 1-1.5-1.5v-3a1.5 1.5 0 0 1 1.5-1.5H7V4.5Z"/></svg>
